X: 2
T: Maud Millar
R: reel
M: 4/4
L: 1/8
K: Gmaj
gf|edBA GEDE|G2BG dGBd|e2dB A2GA|Beed efgf|edBA GEDE|G2BG dGBd|e2dB A2GA|Beed e2ge|dega bgg2|agef g3e|dega bgg2|aged eage|dega bgg2|agef g3a|bgaf gfed|Beed e2|


Tune 1177	Setting 1177

